X: 11034
T: GIRARDOT'S JIG #1
C: Bob McQuillen 24 June 2000
B: Bob's Note Book 11 #34
R: jig
Z: 2020 John Chambers <jc:trillian.mit.edu>
M: 6/8
L: 1/8
K: D
A \
| d2A FGA | Bcd A2F | DFA FAd | BAF EFA |\
| d2A FGA | Bcd AFD | EGF EAG | FDD D2 :|
|: d \
| cde efg | fdd d2F | GAB Bcd | cAA A2A |\
| BGB AFA | GAB AFD | ABd cBc | edd d2 :|
%%begintext align
%% Well, it turns out that there are two
%% Girardot (pro. ..._doe_) sisters, Susanna
%% and Laura, and they are mainstays of the
%% Seattle area dance (contra and otherwise)
%% community. Susanna calls dances, plays
%% [continued on Girardot's Jig #2 page]
%%endtext

%%sep 1 1 500

%%sep 1 1 500

